X: 17855
T: Horlepiep
R: hornpipe
M: 4/4
K: Fmajor
(3cde|f2F2 F2 (3def|g2G2 G2 ga|b2g2 e2c2|f2 f2 f2 (3cde||
f2F2 F2 f^f|g2G2 G2 ga|bagf efgf|e2c2 c2 (3cde|
f2F2 F2 g^f|g2G2 G2 ga|bagf efge|f2 f2 f2 cB||
Afcf afcA|Bfdf bfdB|Afcf afcA|B2G2 G2 cB|
Afcf afcA|Bfdf bfdB|bagf efge|f2f2 f2||

